build/finance/SilverOutline.svg

<svg xmlns="http://www.w3.org/2000/svg" fill="none" viewBox="0 0 24 24" focusable="false"><path d="M0 0H24V24H0z"/><path fill="#74767B" fill-rule="evenodd" d="M5 6.40303L19 6.40303C19.9389 6.40303 20.7 7.16414 20.7 8.10303L20.7 15.8969C20.7 16.8358 19.9389 17.5969 19 17.5969L5 17.5969C4.06112 17.5969 3.3 16.8358 3.3 15.8969L3.3 8.10303C3.3 7.16414 4.06112 6.40303 5 6.40303ZM2 8.10303C2 6.44617 3.34315 5.10303 5 5.10303L19 5.10303C20.6569 5.10303 22 6.44617 22 8.10303L22 15.8969C22 17.5538 20.6569 18.8969 19 18.8969L5 18.8969C3.34315 18.8969 2 17.5538 2 15.8969L2 8.10303ZM9.08978 8.38535C8.98769 8.14524 8.75192 7.98945 8.49102 7.98969C8.23011 7.98992 7.99463 8.14614 7.89297 8.38642L5.05349 15.098C4.91362 15.4286 5.06824 15.81 5.39886 15.9499C5.72947 16.0897 6.11088 15.9351 6.25075 15.6045L6.92833 14.0029L10.0657 14.0029L10.7471 15.6056C10.8876 15.9359 11.2693 16.0899 11.5996 15.9494C11.93 15.8089 12.0839 15.4273 11.9435 15.0969L9.08978 8.38535ZM9.51295 12.7029L8.4931 10.3044L7.47833 12.7029L9.51295 12.7029ZM15.7061 10.1776C15.2007 10.1776 14.7911 10.5873 14.7911 11.0917C14.7911 11.5783 15.1722 11.9767 15.6527 12.0044L15.7594 12.0044C16.2399 11.9767 16.6211 11.5783 16.6211 11.0917C16.6211 10.5873 16.2114 10.1776 15.7061 10.1776ZM16.1978 13.2511C17.1839 13.0275 17.9211 12.1459 17.9211 11.0917C17.9211 10.7641 17.8499 10.4531 17.7221 10.1734L18.3788 10.1734C18.7377 10.1734 19.0288 9.88236 19.0288 9.52338C19.0288 9.16439 18.7377 8.87338 18.3788 8.87338L15.749 8.87338C15.7231 8.87338 15.6976 8.87489 15.6725 8.87783C14.4656 8.89575 13.4911 9.87964 13.4911 11.0917C13.4911 11.5558 13.6339 11.9865 13.878 12.3423C13.3417 12.7017 12.9887 13.3133 12.9887 14.0074C12.9887 15.1136 13.8855 16.0104 14.9917 16.0104L18.3567 16.0104C18.7157 16.0104 19.0067 15.7194 19.0067 15.3604C19.0067 15.0014 18.7157 14.7104 18.3567 14.7104L14.9917 14.7104C14.6034 14.7104 14.2887 14.3957 14.2887 14.0074C14.2887 13.6191 14.6034 13.3044 14.9917 13.3044L15.623 13.3044C15.6505 13.3054 15.6782 13.3059 15.7061 13.3059C15.7339 13.3059 15.7616 13.3054 15.7892 13.3044L15.9397 13.3044C16.0314 13.3044 16.1187 13.2854 16.1978 13.2511Z"/></svg>

<svg xmlns="http://www.w3.org/2000/svg" fill="none" viewBox="0 0 24 24" focusable="false"><path fill="#74767B" fill-rule="evenodd" d="M5 6.4h14c.93 0 1.7.76 1.7 1.7v7.79c0 .94-.77 1.7-1.7 1.7H5c-.94 0-1.7-.76-1.7-1.7V8.1c0-.94.76-1.7 1.7-1.7M2 8.1c0-1.66 1.34-3 3-3h14c1.65 0 3 1.34 3 3v7.79c0 1.66-1.35 3-3 3H5c-1.66 0-3-1.34-3-3zm7.08.28a.641.641 0 0 0-1.19 0l-2.84 6.71c-.14.33.01.72.34.85.33.14.72-.01.86-.34l.67-1.6h3.14l.68 1.6c.14.33.52.48.85.34.34-.14.49-.52.35-.85zm.43 4.32-1.02-2.4-1.02 2.4zm6.19-2.53a.915.915 0 0 0-.05 1.83h.1c.48-.03.87-.43.87-.91 0-.51-.41-.92-.92-.92m.49 3.08c.99-.23 1.73-1.11 1.73-2.16 0-.33-.08-.64-.2-.92h.65c.36 0 .65-.29.65-.65s-.29-.65-.65-.65h-2.7c-1.21.02-2.18 1-2.18 2.22 0 .46.14.89.38 1.25-.53.36-.89.97-.89 1.66 0 1.11.9 2.01 2.01 2.01h3.36c.36 0 .65-.3.65-.65 0-.36-.29-.65-.65-.65h-3.36a.704.704 0 1 1 0-1.41h.94c.1 0 .18-.02.26-.05"/></svg>
